packages/swarm-icons/src/icons/solid/Settings.svg

<svg xmlns="http://www.w3.org/2000/svg" width="18" height="18" viewBox="0 0 18 18">
  <path fill="#A2A2A2" d="M14.1692714,5.95204898 C14.4514077,6.42951659 14.6692768,6.94946851 14.8109738,7.5 L17,7.5 L17,10.5 L14.8109738,10.5 C14.6692768,11.0505315 14.4514077,11.5704834 14.1692714,12.047951 L15.7175144,13.5961941 L13.5961941,15.7175144 L12.047951,14.1692714 C11.5704834,14.4514077 11.0505315,14.6692768 10.5,14.8109738 L10.5,17 L7.5,17 L7.5,14.8109738 C6.94946851,14.6692768 6.42951659,14.4514077 5.95204898,14.1692714 L4.40380592,15.7175144 L2.28248558,13.5961941 L3.83072864,12.047951 C3.54859229,11.5704834 3.33072324,11.0505315 3.18902623,10.5 L1,10.5 L1,7.5 L3.18902623,7.5 C3.33072324,6.94946851 3.54859229,6.42951659 3.83072864,5.95204898 L2.28248558,4.40380592 L4.40380592,2.28248558 L5.95204898,3.83072864 C6.42951659,3.54859229 6.94946851,3.33072324 7.5,3.18902623 L7.5,1 L10.5,1 L10.5,3.18902623 C11.0505315,3.33072324 11.5704834,3.54859229 12.047951,3.83072864 L13.5961941,2.28248558 L15.7175144,4.40380592 L14.1692714,5.95204898 Z M9,11.5 C10.3807119,11.5 11.5,10.3807119 11.5,9 C11.5,7.61928813 10.3807119,6.5 9,6.5 C7.61928813,6.5 6.5,7.61928813 6.5,9 C6.5,10.3807119 7.61928813,11.5 9,11.5 Z"/>
</svg>

<svg xmlns="http://www.w3.org/2000/svg" width="18" height="18"><path fill="#A2A2A2" d="M14.17 5.952c.281.478.5.997.641 1.548H17v3h-2.189c-.142.55-.36 1.07-.642 1.548l1.549 1.548-2.122 2.122-1.548-1.549c-.478.282-.997.5-1.548.642V17h-3v-2.189a5.964 5.964 0 01-1.548-.642l-1.548 1.549-2.122-2.122 1.549-1.548a5.964 5.964 0 01-.642-1.548H1v-3h2.189c.142-.55.36-1.07.642-1.548L2.282 4.404l2.122-2.122 1.548 1.549c.478-.282.997-.5 1.548-.642V1h3v2.189c.55.142 1.07.36 1.548.642l1.548-1.549 2.122 2.122-1.549 1.548zM9 11.5a2.5 2.5 0 100-5 2.5 2.5 0 000 5z"/></svg>
